flaticon/interaction/archive-3.svg

<svg xmlns="http://www.w3.org/2000/svg" width="32" height="32" viewBox="0 0 24 24">
    <path d="M 20.472656 16.601562 L 18.234375 19.816406 L 16.652344 18.519531 C 16.484375 18.378906 16.230469 18.40625 16.089844 18.574219 C 15.949219 18.746094 15.976562 18.996094 16.144531 19.136719 L 18.0625 20.710938 C 18.132812 20.769531 18.222656 20.800781 18.3125 20.800781 C 18.332031 20.800781 18.351562 20.796875 18.371094 20.796875 C 18.480469 20.78125 18.578125 20.71875 18.644531 20.628906 L 21.128906 17.058594 C 21.253906 16.875 21.210938 16.625 21.027344 16.5 C 20.847656 16.371094 20.597656 16.417969 20.472656 16.601562 Z M 20.472656 16.601562"/>
    <path d="M 22 15.054688 L 22 1.132812 C 22 0.507812 21.492188 0 20.867188 0 L 1.53125 0 C 0.910156 0 0.398438 0.507812 0.398438 1.132812 L 0.398438 22.867188 C 0.398438 23.492188 0.910156 24 1.53125 24 L 18.398438 24 C 21.265625 24 23.601562 21.667969 23.601562 18.800781 C 23.601562 17.328125 22.984375 16.003906 22 15.054688 Z M 1.53125 0.800781 L 20.867188 0.800781 C 21.050781 0.800781 21.199219 0.949219 21.199219 1.132812 L 21.199219 11.601562 L 1.199219 11.601562 L 1.199219 1.132812 C 1.199219 0.949219 1.347656 0.800781 1.53125 0.800781 Z M 15.632812 23.199219 L 1.53125 23.199219 C 1.347656 23.199219 1.199219 23.050781 1.199219 22.867188 L 1.199219 12.398438 L 21.199219 12.398438 L 21.199219 14.421875 C 21.160156 14.398438 21.117188 14.375 21.078125 14.351562 C 20.953125 14.277344 20.828125 14.207031 20.695312 14.140625 C 20.632812 14.109375 20.574219 14.082031 20.511719 14.050781 C 20.441406 14.019531 20.371094 13.992188 20.296875 13.964844 C 20.226562 13.9375 20.15625 13.910156 20.082031 13.886719 C 20.015625 13.863281 19.953125 13.839844 19.886719 13.820312 C 19.753906 13.78125 19.621094 13.746094 19.484375 13.714844 C 19.4375 13.707031 19.390625 13.699219 19.339844 13.691406 C 19.230469 13.671875 19.121094 13.652344 19.011719 13.640625 C 18.964844 13.632812 18.914062 13.628906 18.867188 13.625 C 18.710938 13.609375 18.558594 13.601562 18.398438 13.601562 C 15.53125 13.601562 13.199219 15.933594 13.199219 18.800781 C 13.199219 18.960938 13.210938 19.117188 13.222656 19.273438 C 13.226562 19.308594 13.230469 19.34375 13.234375 19.382812 C 13.253906 19.535156 13.273438 19.6875 13.304688 19.835938 C 13.308594 19.851562 13.3125 19.867188 13.316406 19.886719 C 13.34375 20.019531 13.378906 20.15625 13.417969 20.285156 C 13.429688 20.320312 13.4375 20.351562 13.449219 20.382812 C 13.492188 20.523438 13.542969 20.664062 13.601562 20.796875 C 13.609375 20.824219 13.625 20.847656 13.632812 20.871094 C 13.6875 20.992188 13.742188 21.109375 13.804688 21.222656 C 13.816406 21.25 13.828125 21.277344 13.84375 21.300781 C 13.914062 21.429688 13.992188 21.554688 14.070312 21.675781 C 14.089844 21.703125 14.109375 21.726562 14.125 21.753906 C 14.199219 21.859375 14.277344 21.964844 14.359375 22.0625 C 14.375 22.082031 14.386719 22.101562 14.402344 22.121094 C 14.496094 22.230469 14.59375 22.339844 14.695312 22.441406 C 14.71875 22.464844 14.742188 22.488281 14.769531 22.515625 C 14.867188 22.609375 14.96875 22.703125 15.074219 22.792969 C 15.082031 22.800781 15.089844 22.808594 15.101562 22.816406 C 15.214844 22.90625 15.332031 22.996094 15.453125 23.078125 C 15.480469 23.097656 15.511719 23.117188 15.539062 23.136719 C 15.570312 23.160156 15.601562 23.179688 15.632812 23.199219 Z M 18.398438 23.199219 C 15.972656 23.199219 14 21.226562 14 18.800781 C 14 16.375 15.972656 14.398438 18.398438 14.398438 C 18.542969 14.398438 18.683594 14.40625 18.824219 14.421875 C 18.886719 14.429688 18.953125 14.4375 19.015625 14.449219 C 19.085938 14.457031 19.160156 14.46875 19.230469 14.480469 C 19.3125 14.496094 19.390625 14.519531 19.46875 14.539062 C 19.523438 14.550781 19.574219 14.5625 19.625 14.578125 C 19.714844 14.601562 19.800781 14.632812 19.886719 14.664062 C 19.925781 14.679688 19.96875 14.691406 20.007812 14.707031 C 20.097656 14.746094 20.1875 14.785156 20.277344 14.828125 C 20.308594 14.839844 20.339844 14.855469 20.371094 14.871094 C 20.464844 14.917969 20.554688 14.96875 20.644531 15.023438 C 20.667969 15.039062 20.695312 15.050781 20.71875 15.066406 C 20.8125 15.125 20.902344 15.1875 20.988281 15.25 C 21.007812 15.265625 21.027344 15.28125 21.046875 15.292969 C 21.136719 15.363281 21.226562 15.433594 21.3125 15.511719 C 22.222656 16.316406 22.800781 17.492188 22.800781 18.800781 C 22.800781 21.226562 20.824219 23.199219 18.398438 23.199219 Z M 18.398438 23.199219"/>
    <path d="M9.003906 7.199219L13.398438 7.199219C14.171875 7.199219 14.800781 6.570312 14.800781 5.796875L14.800781 5.199219C14.800781 4.980469 14.621094 4.800781 14.398438 4.800781 14.179688 4.800781 14 4.980469 14 5.199219L14 5.796875C14 6.128906 13.730469 6.398438 13.398438 6.398438L9.003906 6.398438C8.671875 6.398438 8.398438 6.128906 8.398438 5.796875L8.398438 5.199219C8.398438 4.980469 8.222656 4.800781 8 4.800781 7.777344 4.800781 7.601562 4.980469 7.601562 5.199219L7.601562 5.796875C7.601562 6.570312 8.230469 7.199219 9.003906 7.199219zM12 18L9.003906 18C8.671875 18 8.398438 17.730469 8.398438 17.398438L8.398438 16.800781C8.398438 16.578125 8.222656 16.398438 8 16.398438 7.777344 16.398438 7.601562 16.578125 7.601562 16.800781L7.601562 17.398438C7.601562 18.171875 8.230469 18.800781 9.003906 18.800781L12 18.800781C12.222656 18.800781 12.398438 18.621094 12.398438 18.398438 12.398438 18.179688 12.222656 18 12 18zM12 18"/>
</svg>

<svg xmlns="http://www.w3.org/2000/svg" width="32" height="32" viewBox="0 0 24 24">
    <path d="M20.473 16.602l-2.239 3.214-1.582-1.296a.402.402 0 0 0-.562.054.401.401 0 0 0 .055.563l1.918 1.574c.07.059.16.09.25.09.019 0 .039-.004.058-.004a.416.416 0 0 0 .274-.168l2.484-3.57a.401.401 0 0 0-.102-.559.394.394 0 0 0-.554.102zm0 0"/>
    <path d="M22 15.055V1.133C22 .508 21.492 0 20.867 0H1.531C.911 0 .398.508.398 1.133v21.734C.398 23.492.91 24 1.531 24h16.867a5.208 5.208 0 0 0 5.204-5.2A5.187 5.187 0 0 0 22 15.056zM1.531.8h19.336c.184 0 .332.148.332.332v10.469h-20V1.132c0-.183.149-.331.332-.331zm14.102 22.398H1.53a.332.332 0 0 1-.332-.332V12.398h20v2.024c-.039-.024-.082-.047-.12-.07a6.002 6.002 0 0 0-.384-.211c-.062-.032-.12-.059-.183-.09a3.516 3.516 0 0 0-.215-.086c-.07-.027-.14-.055-.215-.078-.066-.024-.129-.047-.195-.067a6.749 6.749 0 0 0-.403-.105 11.425 11.425 0 0 0-.144-.024c-.11-.02-.219-.039-.328-.05-.047-.008-.098-.012-.145-.016a4.65 4.65 0 0 0-.469-.023A5.205 5.205 0 0 0 13.2 18.8c0 .16.012.316.024.472l.011.11a5.757 5.757 0 0 0 .082.504c.028.133.063.27.102.398.012.035.02.067.031.098.043.14.094.281.153.414.007.027.023.05.03.074.056.121.11.238.173.352a.486.486 0 0 0 .039.078c.07.129.148.254.226.375.02.027.04.05.055.078.074.105.152.21.234.308.016.02.028.04.043.06.094.108.192.218.293.32l.075.074a6.947 6.947 0 0 0 .332.3c.113.09.23.18.351.262.027.02.059.04.086.059.031.023.063.043.094.062zm2.765 0A4.403 4.403 0 0 1 14 18.801a4.406 4.406 0 0 1 4.398-4.403c.145 0 .286.008.426.024.063.008.13.015.192.027.07.008.144.02.214.031.082.016.16.04.239.06.054.01.105.023.156.038.09.024.176.055.262.086.039.016.082.027.12.043.09.04.18.078.27.121a3.744 3.744 0 0 1 .367.195c.024.016.051.028.075.043a4.65 4.65 0 0 1 .593.446 4.383 4.383 0 0 1 1.489 3.289 4.406 4.406 0 0 1-4.403 4.398zm0 0"/>
    <path d="M9.004 7.2h4.394c.774 0 1.403-.63 1.403-1.403v-.598a.401.401 0 0 0-.801 0v.598c0 .332-.27.601-.602.601H9.004a.605.605 0 0 1-.606-.601v-.598a.398.398 0 1 0-.796 0v.598c0 .773.628 1.402 1.402 1.402zm0 0M12 18H9.004a.605.605 0 0 1-.606-.602v-.597a.398.398 0 1 0-.796 0v.597c0 .774.628 1.403 1.402 1.403H12c.223 0 .398-.18.398-.403A.398.398 0 0 0 12 18zm0 0"/>
</svg>
